X: 5945
T: Camino
R: polka
M: 2/4
K: Gmajor
d|gf/g/ fd|ef ga|gf/g/ fd|e2>f|gf/g/ fd|ef ga|gB cA|G2>d|
gf/g/ fd|ef ga|ba/b/ ag|a2>b|gf/g/ fd|ef ga|gB cA|G2>A|
BA/B/ AG|AB ce|dd/d/ ef|g>d|gf/g/ fd|ef ga|gB cA|G2>A|
BA/B/ AG|AB ce|dd/d/ ef|g>d|gf/g/ fd|ef ga|gB cA|G4|

